src/lib/packages/icons/src/assets/filled/arrow-forward-square-alt.svg

<svg width="24" height="24" viewBox="0 0 24 24" fill="none" xmlns="http://www.w3.org/2000/svg">
<path d="M17.625 3H6.375C4.125 3 3 4.125 3 6.375V17.625C3 19.875 4.125 21 6.375 21H17.625C19.875 21 21 19.875 21 17.625V6.375C21 4.125 19.875 3 17.625 3ZM17.25 12.752C17.25 13.166 16.914 13.502 16.5 13.502H16.187C16.187 13.502 16.1861 13.502 16.1851 13.502H14.25C13.836 13.502 13.5 13.166 13.5 12.752C13.5 12.338 13.836 12.002 14.25 12.002H14.968C14.26 11.076 13.1459 10.502 11.9399 10.502C10.1629 10.502 8.63698 11.704 8.22998 13.425C8.14898 13.77 7.84098 14.002 7.50098 14.002C7.44298 14.002 7.3859 13.9959 7.3269 13.9819C6.9239 13.8859 6.67502 13.4821 6.77002 13.0791C7.33702 10.6791 9.46297 9.00195 11.939 9.00195C13.406 9.00195 14.768 9.61908 15.75 10.6321V10.5039C15.75 10.0899 16.086 9.75391 16.5 9.75391C16.914 9.75391 17.25 10.0899 17.25 10.5039V12.752Z" fill="currentColor"/>
</svg>

<svg xmlns="http://www.w3.org/2000/svg" width="24" height="24" fill="none"><path fill="currentColor" d="M17.625 3H6.375C4.125 3 3 4.125 3 6.375v11.25C3 19.875 4.125 21 6.375 21h11.25C19.875 21 21 19.875 21 17.625V6.375C21 4.125 19.875 3 17.625 3Zm-.375 9.752a.75.75 0 0 1-.75.75h-2.25a.75.75 0 0 1 0-1.5h.718a3.82 3.82 0 0 0-3.028-1.5 3.793 3.793 0 0 0-3.71 2.923.749.749 0 0 1-.903.557.75.75 0 0 1-.557-.903 5.286 5.286 0 0 1 5.169-4.077c1.467 0 2.829.617 3.811 1.63v-.128a.75.75 0 0 1 1.5 0v2.248Z"/></svg>
